X: 33249
T: Pull The Knife And Stick It Again
R: jig
M: 6/8
K: Edorian
|:~E3 GFE|~D3 DEF|~E3 GFE|ABA AFD|
~E3 GFE|~D3 A,DF|G2E FED|B,FD ~E2E:|
edB BAF|EDB, DEF|edB BAF|AFA def|
edB BAF|EDB, DEF|G2E FED|B,FD ~E2B|
edB BAF|~E3 DEF|edB BAF|AFA def|
gfe dBA|~E3 DEF|G2E FED|B,ED ~E2E||

